X:1
T:Title
%%score { ( 1 3 ) | ( 2 4 ) }
L:1/8
M:6/8
K:Bb
V:1 treble nm="Grand Piano"
V:3 treble 
V:2 bass 
V:4 bass 
V:1
 z3 z2[Q:1/4=87] [DF] | [DF][Dd][DA] [Ec][EB][EG] | [DF][B,D][EG] [DF]2 [DF] | BBB [=EB][Ec][Ed] | %4
 [Fc]3- [Fc]2 [EF] | [DF][Dd][DA] [Ec][EB][EG] | [DF][B,D][EG] [DF]3 | G3 FAc | [DB]6 | [DB]3 cBG | %10
 D3- [DB]3 | [B,=EG]3 [Ed][Ec][EG] | c6 | [Fd][DB][Ge] [Fd][Fc][FB] | [Gc][GB]G BAG | FFF cdc | %16
[M:5/8] [DB]-[DB]- [DB]3 |] %17
V:2
 z3 z2 [B,,B,] | [B,,B,][B,,F,][B,,^F,] [B,,G,][B,,G,][B,,A,] | %2
 [B,,B,][B,,F,][B,,B,] [B,,B,]2 [B,,B,] | [G,B,D][G,B,D][G,B,D] [C,C][C,C][C,B,] | %4
 [F,A,]3- [F,A,]2 [F,A,] | [B,,B,][B,,F,][B,,^F,] [B,,G,][B,,G,][B,,A,] | %6
 [B,,B,][B,,F,][B,,B,] [B,,B,]3 | [E,B,E]3 [F,A,E][F,CE][F,A,E] | [B,,B,]6 | %9
 [B,,F,]3 [E,G,E][E,G,E][E,B,E] | z3 F,3 | C,3 [C,B,][C,B,][C,B,] | [A,E]CB, A,G,[F,A,E] | %13
 [B,,B,][B,,B,][B,,B,] [B,,B,][C,A,][D,B,] | [E,B,][E,E][E,B,E] [=E,G,_D][E,A,D][E,B,D] | %15
 [F,B,D][F,B,D][F,B,D] [F,A,E][F,G,F][F,A,E] |[M:5/8] [B,,B,]-[B,,B,]- [B,,B,]3 |] %17
V:3
 x6 | x6 | x6 | x6 | x6 | x6 | x6 | x6 | x6 | x6 | [B,F]3 z3 | x6 | z AG F=EF | x6 | x6 | x6 | %16
[M:5/8] x5 |] %17
V:4
 x6 | x6 | x6 | x6 | x6 | x6 | x6 | x6 | x6 | x6 | B,,6 | x6 | F,6 | x6 | x6 | x6 |[M:5/8] x5 |] %17

